X: 84
T: the BRINK OF THE WHITE ROCKS - 2nd Setting.   #2
R: jig
%S: s:2 b:10(5+5)
B: O'Neill's 1850 #84
Z: 1999 John Chambers <jc@trillian.mit.edu>
Q: "Gaily"
N: Missing dot in bars 8, 16; fixed.
N: Compacted via repeats and multiple endings [JC]
N: Compacted by using labels and play order [JC]
P: Play A2A2 BA2
M: 6/8
L: 1/8
K: Em
"^A"[| B2^d e2f | {a}g2f e2=d | (Bd).B [1 (AFA) | d3 B2A :|[2 (AF)({A}G/F/) |
| E3 "^fine"E3 |] "^B"[|(Bd).B (AFD) | d2e f2z | e2d (BA)(B/^c/) | d3 B2"^->A2"A |]
